img/Group 4144319.svg

<svg width="80" height="80" viewBox="0 0 80 80" fill="none" xmlns="http://www.w3.org/2000/svg">
<g id="Group 4144319">
<rect id="Rectangle 993" width="80" height="80" rx="6" fill="#225093"/>
<g id="vuesax/bold/receipt-item">
<g id="receipt-item">
<path id="Vector" d="M34.6668 23.3334H33.0002C28.0002 23.3334 26.3335 26.3167 26.3335 30V31.6667V55C26.3335 56.3834 27.9002 57.1667 29.0002 56.3334L31.8502 54.2C32.5168 53.7 33.4502 53.7667 34.0502 54.3667L36.8168 57.15C37.4668 57.8 38.5335 57.8 39.1835 57.15L41.9835 54.35C42.5668 53.7667 43.5002 53.7 44.1502 54.2L47.0002 56.3334C48.1002 57.15 49.6668 56.3667 49.6668 55V26.6667C49.6668 24.8334 51.1668 23.3334 53.0002 23.3334H34.6668ZM32.9502 43.35C32.0335 43.35 31.2835 42.6 31.2835 41.6834C31.2835 40.7667 32.0335 40.0167 32.9502 40.0167C33.8668 40.0167 34.6168 40.7667 34.6168 41.6834C34.6168 42.6 33.8668 43.35 32.9502 43.35ZM32.9502 36.6834C32.0335 36.6834 31.2835 35.9334 31.2835 35.0167C31.2835 34.1 32.0335 33.35 32.9502 33.35C33.8668 33.35 34.6168 34.1 34.6168 35.0167C34.6168 35.9334 33.8668 36.6834 32.9502 36.6834ZM43.0002 42.9334H38.0002C37.3168 42.9334 36.7502 42.3667 36.7502 41.6834C36.7502 41 37.3168 40.4334 38.0002 40.4334H43.0002C43.6835 40.4334 44.2502 41 44.2502 41.6834C44.2502 42.3667 43.6835 42.9334 43.0002 42.9334ZM43.0002 36.2667H38.0002C37.3168 36.2667 36.7502 35.7 36.7502 35.0167C36.7502 34.3334 37.3168 33.7667 38.0002 33.7667H43.0002C43.6835 33.7667 44.2502 34.3334 44.2502 35.0167C44.2502 35.7 43.6835 36.2667 43.0002 36.2667Z" fill="white"/>
<path id="Vector_2" d="M53.0165 23.3334V25.8334C54.1165 25.8334 55.1665 26.2834 55.9332 27.0334C56.7332 27.85 57.1665 28.9 57.1665 30V34.0334C57.1665 35.2667 56.6165 35.8334 55.3665 35.8334H52.1665V26.6834C52.1665 26.2167 52.5498 25.8334 53.0165 25.8334V23.3334ZM53.0165 23.3334C51.1665 23.3334 49.6665 24.8334 49.6665 26.6834V38.3334H55.3665C57.9998 38.3334 59.6665 36.6667 59.6665 34.0334V30C59.6665 28.1667 58.9165 26.5 57.7165 25.2834C56.4998 24.0834 54.8498 23.35 53.0165 23.3334C53.0332 23.3334 53.0165 23.3334 53.0165 23.3334Z" fill="white"/>
</g>
</g>
</g>
</svg>

<svg xmlns="http://www.w3.org/2000/svg" width="80" height="80" fill="none"><rect width="80" height="80" fill="#225093" rx="6"/><g fill="#fff"><path d="M34.667 23.333H33c-5 0-6.666 2.984-6.666 6.667v25c0 1.383 1.566 2.167 2.666 1.333l2.85-2.133a1.68 1.68 0 0 1 2.2.167l2.767 2.783c.65.65 1.716.65 2.367 0l2.8-2.8a1.65 1.65 0 0 1 2.166-.15L47 56.333c1.1.817 2.667.034 2.667-1.333V26.667c0-1.834 1.5-3.334 3.333-3.334zM32.95 43.35c-.917 0-1.667-.75-1.667-1.667 0-.916.75-1.666 1.667-1.666s1.667.75 1.667 1.666c0 .917-.75 1.667-1.667 1.667m0-6.667c-.917 0-1.667-.75-1.667-1.666 0-.917.75-1.667 1.667-1.667s1.667.75 1.667 1.667c0 .916-.75 1.666-1.667 1.666M43 42.933h-5a1.26 1.26 0 0 1-1.25-1.25c0-.683.567-1.25 1.25-1.25h5c.684 0 1.25.567 1.25 1.25a1.26 1.26 0 0 1-1.25 1.25m0-6.666h-5a1.26 1.26 0 0 1-1.25-1.25c0-.684.567-1.25 1.25-1.25h5c.684 0 1.25.566 1.25 1.25a1.26 1.26 0 0 1-1.25 1.25"/><path d="M53.017 23.333v2.5c1.1 0 2.15.45 2.916 1.2.8.817 1.233 1.867 1.233 2.967v4.033c0 1.234-.55 1.8-1.8 1.8h-3.2v-9.15c0-.466.384-.85.85-.85zm0 0a3.35 3.35 0 0 0-3.35 3.35v11.65h5.7c2.633 0 4.3-1.666 4.3-4.3V30c0-1.833-.75-3.5-1.95-4.717a6.74 6.74 0 0 0-4.7-1.95c.016 0 0 0 0 0"/></g></svg>
